X:274
T:Otter's Holt
Z: id:dc-reel-254
M:C
L:1/8
K:B Dorian
de|fBBA BAFB|A2FB ABde|fBBA BAFA|BdcA B2de|!
fBBA BAFB|A2FB ABde|fbba fafe|dBcA B2:|!
Bc|d2fd adfa|bfaf efdc|d2fd adfa|bfaf e2dc|!
d2fd adfa|bfaf e2de|fBBA BAFA|BdcA B2:|!

